web/assets/img/functions/970_3.svg

<svg width="512" height="512" viewBox="0 0 512 512" fill="none" xmlns="http://www.w3.org/2000/svg">
    <path fill-rule="evenodd" clip-rule="evenodd"
          d="M14 66C8.47715 66 4 70.4772 4 76V436C4 441.523 8.47715 446 14 446H374H498C503.523 446 508 441.523 508 436V76C508 70.4772 503.523 66 498 66H374H14ZM384 86V426H488V86H384ZM364 86H24V426H364V86Z"
          fill="#282828"/>
    <path fill-rule="evenodd" clip-rule="evenodd"
          d="M183.998 278.785V392.812H203.998V278.786L284.625 359.414L298.768 345.271L218.139 264.643H332.166V244.643H218.141L298.769 164.014L284.627 149.872L203.998 230.501V116.474H183.998V230.502L103.367 149.871L89.2251 164.013L169.854 244.643H55.8281V264.643H169.856L89.2266 345.272L103.369 359.415L183.998 278.785Z"
          fill="#12A71E"/>
    <path fill-rule="evenodd" clip-rule="evenodd"
          d="M194 126C122.203 126 64 184.203 64 256C64 327.797 122.203 386 194 386C265.797 386 324 327.797 324 256C324 184.203 265.797 126 194 126ZM44 256C44 173.157 111.157 106 194 106C276.843 106 344 173.157 344 256C344 338.843 276.843 406 194 406C111.157 406 44 338.843 44 256Z"
          fill="#282828"/>
</svg>

<?xml version="1.0" encoding="utf-8"?>
<!-- Generator: Adobe Illustrator 28.2.0, SVG Export Plug-In . SVG Version: 6.00 Build 0)  -->
<svg version="1.1" id="Calque_1" xmlns="http://www.w3.org/2000/svg" xmlns:xlink="http://www.w3.org/1999/xlink" x="0px" y="0px"
	 viewBox="0 0 512 512" style="enable-background:new 0 0 512 512;" xml:space="preserve">
<style type="text/css">
	.st0{fill-rule:evenodd;clip-rule:evenodd;fill:#282828;}
	.st1{fill-rule:evenodd;clip-rule:evenodd;fill:#33B0DF;}
</style>
<path class="st0" d="M14,66C8.5,66,4,70.5,4,76v360c0,5.5,4.5,10,10,10h360h124c5.5,0,10-4.5,10-10V76c0-5.5-4.5-10-10-10H374H14z
	 M384,86v340h104V86H384z M364,86H24v340h340V86z"/>
<path class="st1" d="M184,278.8v114h20v-114l80.6,80.6l14.1-14.1l-80.6-80.6h114v-20h-114l80.6-80.6l-14.1-14.1L204,230.5v-114h-20
	v114l-80.6-80.6L89.2,164l80.6,80.6h-114v20h114l-80.6,80.6l14.1,14.1L184,278.8z"/>
<path class="st0" d="M194,126c-71.8,0-130,58.2-130,130s58.2,130,130,130s130-58.2,130-130S265.8,126,194,126z M44,256
	c0-82.8,67.2-150,150-150s150,67.2,150,150s-67.2,150-150,150S44,338.8,44,256z"/>
</svg>
